icon-themes/sifr_svg/cmd/lc_dbqueryedit.svg

<svg viewBox="0 0 24 24" xmlns="http://www.w3.org/2000/svg"><path d="m2.2167969 1.9882812c-.0690319-.0083162-.1412605-.0049905-.2167969.0117188h-.5878906-.4121094v1c0 .224022.12983.528449.3125.71875l.3710938.28125 2.3164062 2-2.3164062 2-.3710938.28125c-.18267.190288-.2899208.4628522-.3125.71875v1h.4121094.5878906c.30945 0 .55232-.0903.75-.28125l3.25-2.8828125v-1.6152344c-.725151-.618354-2.233922-2.1698591-3.25-2.9394531-.14826-.1432125-.3261076-.2680201-.5332031-.2929688zm5.7832031 2.0117188v13.386719l2-1.996094v-1.390625h1.394531l2.003907-2h-3.398438v-2h4v1.400391c1.135329-1.133552 2.271809-2.2659505 3.40625-3.400391h-1.40625v-2h3.410156c.324865-.3248782.650887-.6485926.976563-.9726562.565425-.0520566 1.159853.0770525 1.613281.1777343v-1.2050781zm2 2h4v2h-4zm10.800781.0273438-1.601562 1.5957031 1.601562 1.5976562 1.59961 1.5976559 1.599609-1.5976559c0-.22.003499-.4347193-.050781-.6464843-.03627-.176779-.135059-.335189-.199219-.5-.388757-.998645-1.228752-1.7768477-2.300781-1.9941407-.01678-.0051-.032438.0013-.048828 0-.200001-.048595-.398829-.0527343-.59961-.0527343zm-3.201172 3.1933593-9.599609 9.5800779v3.199219h3.199219l9.601562-9.582031zm4.400391 3.4121089-2 1.996094v1.371094h-1.373047l-2.003906 2h3.376953v2h-4v-1.378906l-3.384766 3.378906h9.384766z" fill="#555753"/></svg>

<svg xmlns="http://www.w3.org/2000/svg" viewBox="0 0 24 24">
  <path
     style="fill:#555753"
     d="M 2.2167969 1.9882812 C 2.147765 1.979965 2.0755364 1.9832907 2 2 L 1.4121094 2 L 1 2 L 1 3 C 1 3.224022 1.12983 3.528449 1.3125 3.71875 L 1.6835938 4 L 4 6 L 1.6835938 8 L 1.3125 8.28125 C 1.12983 8.471538 1.0225792 8.7441022 1 9 L 1 10 L 1.4121094 10 L 2 10 C 2.30945 10 2.55232 9.9097 2.75 9.71875 L 6 6.8359375 L 6 5.2207031 C 5.274849 4.6023491 3.766078 3.050844 2.75 2.28125 C 2.60174 2.1380375 2.4238924 2.0132299 2.2167969 1.9882812 z M 8 4 L 8 17.386719 L 10 15.390625 L 10 14 L 11.394531 14 L 13.398438 12 L 10 12 L 10 10 L 14 10 L 14 11.400391 C 15.135329 10.266839 16.271809 9.1344405 17.40625 8 L 16 8 L 16 6 L 19.410156 6 C 19.735021 5.6751218 20.061043 5.3514074 20.386719 5.0273438 C 20.952144 4.9752872 21.546572 5.1043963 22 5.2050781 L 22 4 L 8 4 z M 10 6 L 14 6 L 14 8 L 10 8 L 10 6 z M 20.800781 6.0273438 L 19.199219 7.6230469 L 20.800781 9.2207031 L 22.400391 10.818359 L 24 9.2207031 C 24 9.0007031 24.003499 8.7859838 23.949219 8.5742188 C 23.912949 8.3974398 23.81416 8.2390298 23.75 8.0742188 C 23.361243 7.0755738 22.521248 6.2973711 21.449219 6.0800781 C 21.432439 6.0749781 21.416781 6.0813781 21.400391 6.0800781 C 21.20039 6.0314831 21.001562 6.0273438 20.800781 6.0273438 z M 17.599609 9.2207031 L 8 18.800781 L 8 22 L 11.199219 22 L 20.800781 12.417969 L 17.599609 9.2207031 z M 22 12.632812 L 20 14.628906 L 20 16 L 18.626953 16 L 16.623047 18 L 20 18 L 20 20 L 16 20 L 16 18.621094 L 12.615234 22 L 22 22 L 22 12.632812 z "
     />
</svg>
